source/img/icons/gk/doors.svg

<svg width="48" height="48" viewBox="0 0 48 48" fill="none" xmlns="http://www.w3.org/2000/svg">
<path fill-rule="evenodd" clip-rule="evenodd" d="M11 7.79995C10.8896 7.79995 10.8 7.88949 10.8 7.99995V21.2H19.2V7.99995C19.2 7.88949 19.1105 7.79995 19 7.79995H11ZM20.8 21.2V7.99995C20.8 7.00584 19.9941 6.19995 19 6.19995H11C10.0059 6.19995 9.20001 7.00584 9.20001 7.99995V21.2H8.00001C7.55818 21.2 7.20001 21.5581 7.20001 22C7.20001 22.4418 7.55818 22.8 8.00001 22.8H22C22.4418 22.8 22.8 22.4418 22.8 22C22.8 21.5581 22.4418 21.2 22 21.2H20.8ZM15.3603 15.3095C15.3603 14.8677 15.7185 14.5095 16.1603 14.5095H17.7187C18.1605 14.5095 18.5187 14.8677 18.5187 15.3095C18.5187 15.7513 18.1605 16.1095 17.7187 16.1095H16.1603C15.7185 16.1095 15.3603 15.7513 15.3603 15.3095Z" fill="black"/>
<path fill-rule="evenodd" clip-rule="evenodd" d="M11 27.8C10.8896 27.8 10.8 27.8895 10.8 28V41.2H19.2V28C19.2 27.8895 19.1105 27.8 19 27.8H11ZM20.8 41.2V28C20.8 27.0058 19.9941 26.2 19 26.2H11C10.0059 26.2 9.20001 27.0058 9.20001 28V41.2H8.00001C7.55818 41.2 7.20001 41.5581 7.20001 42C7.20001 42.4418 7.55818 42.8 8.00001 42.8H22C22.4418 42.8 22.8 42.4418 22.8 42C22.8 41.5581 22.4418 41.2 22 41.2H20.8ZM15.3603 35.3095C15.3603 34.8677 15.7185 34.5095 16.1603 34.5095H17.7187C18.1605 34.5095 18.5187 34.8677 18.5187 35.3095C18.5187 35.7513 18.1605 36.1095 17.7187 36.1095H16.1603C15.7185 36.1095 15.3603 35.7513 15.3603 35.3095Z" fill="black"/>
<path fill-rule="evenodd" clip-rule="evenodd" d="M30 7.79995C29.8896 7.79995 29.8 7.88949 29.8 7.99995V21.2H38.2V7.99995C38.2 7.88949 38.1105 7.79995 38 7.79995H30ZM39.8 21.2V7.99995C39.8 7.00584 38.9941 6.19995 38 6.19995H30C29.0059 6.19995 28.2 7.00584 28.2 7.99995V21.2H27C26.5582 21.2 26.2 21.5581 26.2 22C26.2 22.4418 26.5582 22.8 27 22.8H41C41.4418 22.8 41.8 22.4418 41.8 22C41.8 21.5581 41.4418 21.2 41 21.2H39.8ZM34.3603 15.3095C34.3603 14.8677 34.7185 14.5095 35.1603 14.5095H36.7187C37.1605 14.5095 37.5187 14.8677 37.5187 15.3095C37.5187 15.7513 37.1605 16.1095 36.7187 16.1095H35.1603C34.7185 16.1095 34.3603 15.7513 34.3603 15.3095Z" fill="black"/>
<path fill-rule="evenodd" clip-rule="evenodd" d="M30 27.8C29.8896 27.8 29.8 27.8895 29.8 28V41.2H38.2V28C38.2 27.8895 38.1105 27.8 38 27.8H30ZM39.8 41.2V28C39.8 27.0058 38.9941 26.2 38 26.2H30C29.0059 26.2 28.2 27.0058 28.2 28V41.2H27C26.5582 41.2 26.2 41.5581 26.2 42C26.2 42.4418 26.5582 42.8 27 42.8H41C41.4418 42.8 41.8 42.4418 41.8 42C41.8 41.5581 41.4418 41.2 41 41.2H39.8ZM34.3603 35.3095C34.3603 34.8677 34.7185 34.5095 35.1603 34.5095H36.7187C37.1605 34.5095 37.5187 34.8677 37.5187 35.3095C37.5187 35.7513 37.1605 36.1095 36.7187 36.1095H35.1603C34.7185 36.1095 34.3603 35.7513 34.3603 35.3095Z" fill="black"/>
</svg>

<svg fill="none" height="48" viewBox="0 0 48 48" width="48" xmlns="http://www.w3.org/2000/svg"><g clip-rule="evenodd" fill="#000" fill-rule="evenodd"><path d="m11 7.79995c-.1104 0-.2.08954-.2.2v13.20005h8.4v-13.20005c0-.11046-.0895-.2-.2-.2zm9.8 13.40005v-13.20005c0-.99411-.8059-1.8-1.8-1.8h-8c-.9941 0-1.79999.80589-1.79999 1.8v13.20005h-1.2c-.44183 0-.8.3581-.8.8 0 .4418.35817.8.8.8h13.99999c.4418 0 .8-.3582.8-.8 0-.4419-.3582-.8-.8-.8zm-5.4397-5.8905c0-.4418.3582-.8.8-.8h1.5584c.4418 0 .8.3582.8.8s-.3582.8-.8.8h-1.5584c-.4418 0-.8-.3582-.8-.8z"/><path d="m11 27.8c-.1104 0-.2.0895-.2.2v13.2h8.4v-13.2c0-.1105-.0895-.2-.2-.2zm9.8 13.4v-13.2c0-.9942-.8059-1.8-1.8-1.8h-8c-.9941 0-1.79999.8058-1.79999 1.8v13.2h-1.2c-.44183 0-.8.3581-.8.8 0 .4418.35817.8.8.8h13.99999c.4418 0 .8-.3582.8-.8 0-.4419-.3582-.8-.8-.8zm-5.4397-5.8905c0-.4418.3582-.8.8-.8h1.5584c.4418 0 .8.3582.8.8s-.3582.8-.8.8h-1.5584c-.4418 0-.8-.3582-.8-.8z"/><path d="m30 7.79995c-.1104 0-.2.08954-.2.2v13.20005h8.4v-13.20005c0-.11046-.0895-.2-.2-.2zm9.8 13.40005v-13.20005c0-.99411-.8059-1.8-1.8-1.8h-8c-.9941 0-1.8.80589-1.8 1.8v13.20005h-1.2c-.4418 0-.8.3581-.8.8 0 .4418.3582.8.8.8h14c.4418 0 .8-.3582.8-.8 0-.4419-.3582-.8-.8-.8zm-5.4397-5.8905c0-.4418.3582-.8.8-.8h1.5584c.4418 0 .8.3582.8.8s-.3582.8-.8.8h-1.5584c-.4418 0-.8-.3582-.8-.8z"/><path d="m30 27.8c-.1104 0-.2.0895-.2.2v13.2h8.4v-13.2c0-.1105-.0895-.2-.2-.2zm9.8 13.4v-13.2c0-.9942-.8059-1.8-1.8-1.8h-8c-.9941 0-1.8.8058-1.8 1.8v13.2h-1.2c-.4418 0-.8.3581-.8.8 0 .4418.3582.8.8.8h14c.4418 0 .8-.3582.8-.8 0-.4419-.3582-.8-.8-.8zm-5.4397-5.8905c0-.4418.3582-.8.8-.8h1.5584c.4418 0 .8.3582.8.8s-.3582.8-.8.8h-1.5584c-.4418 0-.8-.3582-.8-.8z"/></g></svg>
